X:1
T: Jig  The Rambling Pitchfork
M: 6/8
L: 1/8
K: Dmaj
|FEF AF{E}F | dF{e}F AFD | GFG ABc | ded cAG|
|FEF AF{E}F |dF{E}F AFD|GFG BdB|AFD DGE |
|~F2F AF{E}F] | dzF AFD] |GFG ABc | d2B cAG] |
|~F2F AF{E}F |dF{E}F AFD|GFG BdB|AFD D3 |
|dcd fed |ecA AFA |dcd efg | faf gfe] |
| d2d fed| ecA AFD|GFG BdB|AFD DFA|
| d2d fed] |ecA AFA |dcd efg | ( (3fga) f gfe]|
| d2d fed| ecA AFD|GFG BdB| AFD D3 ||

